icons/AppWindow_1.svg

<svg width="24" height="24" viewBox="0 0 24 24" fill="none" xmlns="http://www.w3.org/2000/svg">
<path fill-rule="evenodd" clip-rule="evenodd" d="M2.25,5c0,-0.9665 0.7835,-1.75 1.75,-1.75h16c0.9665,0 1.75,0.7835 1.75,1.75v14c0,0.9665 -0.7835,1.75 -1.75,1.75h-16c-0.9665,0 -1.75,-0.7835 -1.75,-1.75zM4,4.75c-0.13807,0 -0.25,0.11193 -0.25,0.25v14c0,0.1381 0.11193,0.25 0.25,0.25h16c0.1381,0 0.25,-0.1119 0.25,-0.25v-14c0,-0.13807 -0.1119,-0.25 -0.25,-0.25zM5.5,7.5c0,-0.55228 0.44772,-1 1,-1c0.55228,0 1,0.44772 1,1c0,0.55228 -0.44772,1 -1,1c-0.55228,0 -1,-0.44772 -1,-1zM11,7.5c0,0.55228 -0.4477,1 -1,1c-0.55228,0 -1,-0.44772 -1,-1c0,-0.55228 0.44772,-1 1,-1c0.5523,0 1,0.44772 1,1z" fill="#002B51"/>
</svg>

<svg width="24" height="24" viewBox="0 0 24 24" fill="none" xmlns="http://www.w3.org/2000/svg">
<path fill-rule="evenodd" clip-rule="evenodd" d="M2.25 5C2.25 4.0335 3.0335 3.25 4 3.25H20C20.9665 3.25 21.75 4.0335 21.75 5V19C21.75 19.9665 20.9665 20.75 20 20.75H4C3.0335 20.75 2.25 19.9665 2.25 19V5ZM4 4.75C3.86193 4.75 3.75 4.86193 3.75 5V19C3.75 19.1381 3.86193 19.25 4 19.25H20C20.1381 19.25 20.25 19.1381 20.25 19V5C20.25 4.86193 20.1381 4.75 20 4.75H4ZM5.5 7.5C5.5 6.94772 5.94772 6.5 6.5 6.5C7.05228 6.5 7.5 6.94772 7.5 7.5C7.5 8.05228 7.05228 8.5 6.5 8.5C5.94772 8.5 5.5 8.05228 5.5 7.5ZM10 6.5C9.44772 6.5 9 6.94772 9 7.5C9 8.05228 9.44772 8.5 10 8.5C10.5523 8.5 11 8.05228 11 7.5C11 6.94772 10.5523 6.5 10 6.5Z" fill="#002B51"/>
</svg>
